packages/icons/src/SVG/warning.svg

<svg width="12" height="12" viewBox="0 0 12 12" fill="none" xmlns="http://www.w3.org/2000/svg">
<path d="M5 8V4.5H7V8H5Z" fill="#4C505B"/>
<path d="M7 9.5C7 10.0523 6.55228 10.5 6 10.5C5.44772 10.5 5 10.0523 5 9.5C5 8.94772 5.44772 8.5 6 8.5C6.55228 8.5 7 8.94772 7 9.5Z" fill="#4C505B"/>
<path fill-rule="evenodd" clip-rule="evenodd" d="M6 0L12 12H0L6 0ZM1.61803 11L6 2.23607L10.382 11H1.61803Z" fill="#4C505B"/>
</svg>

<!-- Generated by IcoMoon.io -->
<svg version="1.1" xmlns="http://www.w3.org/2000/svg" width="12" height="12" viewBox="0 0 12 12">
<title>warning</title>
<path d="M6 0l-6 12h12l-6-12zM5 4.5h2v3.5h-2v-3.5zM7 9.5c0 0.552-0.448 1-1 1s-1-0.448-1-1c0-0.552 0.448-1 1-1s1 0.448 1 1z"></path>
</svg>
